assets/components_previews/other/dark/clipboard.svg

<svg xmlns="http://www.w3.org/2000/svg" width="320" height="232" fill="none" viewBox="0 0 320 232"><path fill="#5F43D0" fill-rule="evenodd" d="M165.118 103.222a1 1 0 0 0 .104 1.411l1.84 1.585c.366.316.587.508.728.657-.141.149-.362.341-.728.657l-1.84 1.586a1 1 0 0 0 1.306 1.515l1.84-1.586.043-.038c.349-.3.684-.589.923-.859.262-.296.541-.713.541-1.275s-.279-.979-.541-1.275c-.239-.27-.574-.558-.923-.859l-.043-.038-1.84-1.585a1 1 0 0 0-1.41.104m-2.486 0a1 1 0 0 1-.104 1.411l-1.84 1.585c-.366.316-.587.508-.728.657.141.149.362.341.728.657l1.84 1.586a1 1 0 0 1-1.306 1.515l-1.84-1.586-.043-.038c-.349-.3-.684-.589-.923-.859-.262-.296-.541-.713-.541-1.275s.279-.979.541-1.275c.239-.27.574-.558.923-.859l.043-.038 1.84-1.585a1 1 0 0 1 1.41.104" clip-rule="evenodd"/><path fill="#5F43D0" d="M154.812 110.522c.982.103.545.103 2.086.103a.978.978 0 0 0 0-1.955c-1.609 0-1.015-.001-1.885-.092-.854-.089-1.337-.256-1.695-.509a3 3 0 0 1-.632-.596c-.255-.323-.425-.756-.517-1.542-.095-.81-.097-1.867-.097-3.391v-2.9c0-.267 0-.906.281-1.378.173-.29.394-.534.622-.658a2.6 2.6 0 0 1 1.233-.312l1.041.036c.38.008.823-.004 1.251-.119a2.42 2.42 0 0 0 1.709-1.709c.115-.428.127-.871.119-1.251l-.036-1.04c0-.469.124-.876.341-1.254.127-.22.348-.423.653-.6.462-.269 1.015-.271 1.353-.273l.993-.002c1.834 0 2.501.014 3.005.19.872.308 1.538.95 1.848 1.735.078.197.133.455.162.903.03.457.031 1.04.031 1.88v5.113a.974.974 0 1 0 1.947 0v-5.146c0-.8 0-1.447-.035-1.975-.036-.545-.111-1.03-.294-1.495-.529-1.34-1.638-2.373-3.014-2.858-.859-.303-2.331-.303-3.886-.302-2.84 0-4.526 0-5.909.487-2.22.782-3.994 2.444-4.837 4.58-.281.712-.406 1.477-.466 2.394-.059.9-.059 2.013-.059 3.432v2.583c0 1.448 0 2.621.11 3.558.114.974.357 1.811.927 2.53a5 5 0 0 0 1.034.978c.745.526 1.606.75 2.616.855" opacity=".4"/><path fill="#5F43D0" d="M107.51 138v-8.8h1.952v1.776h.544l-.592.48q0-1.12.656-1.76.672-.656 1.824-.656 1.343 0 2.096.864.752.864.752 2.416v.832h-2v-.736q0-.816-.416-1.232-.417-.416-1.184-.416-.784 0-1.216.48-.416.48-.416 1.36V138zm7.977 0 3.072-4.544-2.864-4.256h2.256l1.36 2.16q.129.192.224.432.113.24.176.384l.176-.384q.113-.24.224-.432l1.36-2.16h2.272l-2.864 4.256 3.056 4.544h-2.272l-1.52-2.416a5 5 0 0 1-.24-.448 6 6 0 0 0-.192-.384q-.063.144-.176.384-.111.24-.24.448L117.759 138zm13.178.16q-.672 0-1.088-.4-.4-.416-.4-1.072 0-.672.4-1.072.416-.416 1.088-.416t1.072.416q.416.4.416 1.072 0 .656-.416 1.072-.4.4-1.072.4m9.098 0q-1.137 0-1.984-.416a3.2 3.2 0 0 1-1.296-1.2q-.464-.784-.464-1.84v-2.208q0-1.072.464-1.84a3.1 3.1 0 0 1 1.296-1.184q.847-.432 1.984-.432 1.647 0 2.64.864.992.848 1.056 2.32h-1.968q-.048-.689-.512-1.056-.465-.384-1.216-.384-.816 0-1.28.448-.464.432-.464 1.248v2.224q0 .816.464 1.264t1.28.448q.751 0 1.216-.368.464-.384.512-1.072h1.968q-.065 1.472-1.056 2.336-.993.848-2.64.848m10.233-.16q-.863 0-1.52-.352a2.6 2.6 0 0 1-1.008-.992q-.368-.656-.368-1.504v-7.024h-2.896v-1.808h4.896v8.784q0 .496.272.8.288.288.768.288h2.576V138zm3.946 0v-1.808h3.008v-5.184h-2.688V129.2h4.688v6.992h2.704V138zm3.872-10.272q-.607 0-.96-.304-.352-.32-.352-.848t.352-.832q.352-.32.96-.32.609 0 .96.32.352.304.352.832t-.352.848q-.351.304-.96.304m5.098 13.152V129.2h1.952v1.776h.448l-.576.832q0-1.28.688-2.016.688-.752 1.856-.752.847 0 1.488.432.655.416 1.008 1.168.368.752.368 1.76v2.384q0 1.008-.368 1.776a2.85 2.85 0 0 1-.992 1.184q-.64.416-1.504.416-1.168 0-1.856-.752-.688-.751-.688-2.016l.576.848h-.464l.064 2.176v2.464zm3.616-4.448q.768 0 1.184-.416.432-.432.432-1.28v-2.272q0-.864-.432-1.28-.416-.416-1.184-.416t-1.2.464q-.416.464-.416 1.312v2.112q0 .848.416 1.312.432.464 1.2.464m9.706 1.728q-1.169 0-1.856-.736-.688-.752-.688-2.032l.576.832h-.448V138h-1.952v-11.68h2v2.464l-.064 2.192h.464l-.592.832q0-1.28.688-2.016.703-.752 1.872-.752 1.296 0 2.08.912t.784 2.464v2.384q0 1.536-.784 2.448t-2.08.912m-.752-1.728q.768 0 1.184-.416.432-.432.432-1.28v-2.272q0-.864-.432-1.28-.416-.416-1.184-.416t-1.2.464q-.416.464-.416 1.312v2.112q0 .848.416 1.312.432.464 1.2.464m8.905 1.712q-1.12 0-1.952-.432a3.07 3.07 0 0 1-1.28-1.216q-.447-.8-.448-1.872v-2.048q0-1.087.448-1.872a3.07 3.07 0 0 1 1.28-1.216q.833-.432 1.952-.432 1.137 0 1.952.432.833.432 1.28 1.216t.448 1.872v2.048q0 1.073-.448 1.872a3.06 3.06 0 0 1-1.28 1.216q-.815.432-1.952.432m0-1.744q.8 0 1.232-.432.448-.448.448-1.28v-2.176q0-.848-.448-1.28-.432-.432-1.232-.432-.783 0-1.232.432-.447.432-.448 1.28v2.176q0 .832.448 1.28.449.432 1.232.432m7.978 1.76q-1.344 0-2.128-.752-.768-.768-.768-2 0-.864.4-1.488a2.6 2.6 0 0 1 1.136-.96q.752-.352 1.76-.352h2.144v-.624q0-.64-.4-.976-.384-.352-1.152-.352-.704 0-1.136.272a.95.95 0 0 0-.448.768h-1.92q.065-1.2.992-1.92.944-.736 2.528-.736 1.68 0 2.608.784t.928 2.208V138h-1.952v-1.68h-.32l.352-.288q0 .656-.32 1.136-.32.464-.912.736-.591.256-1.392.256m.64-1.632q.88 0 1.392-.432t.512-1.152v-1.04h-2.048q-.656 0-1.04.368-.384.352-.384.944 0 .593.4.96.417.352 1.168.352m6.042 1.472v-8.8h1.952v1.776h.544l-.592.48q0-1.12.656-1.76.672-.656 1.824-.656 1.344 0 2.096.864t.752 2.416v.832h-2v-.736q0-.816-.416-1.232t-1.184-.416q-.784 0-1.216.48-.416.48-.416 1.36V138zm11.402.16q-1.28 0-2.08-.912-.784-.912-.784-2.448v-2.384q0-1.552.784-2.464.8-.912 2.08-.912 1.183 0 1.872.752.687.737.688 2.016l-.592-.832h.464l-.064-2.192v-2.464h2V138h-1.952v-1.776h-.448l.576-.832q0 1.28-.688 2.032-.672.736-1.856.736m.752-1.728q.768 0 1.184-.464.432-.464.432-1.312v-2.112q0-.848-.432-1.312-.416-.464-1.184-.464t-1.2.416q-.416.416-.416 1.28v2.272q0 .848.416 1.28.432.416 1.2.416"/></svg>

<svg width="320" height="232" viewBox="0 0 320 232" fill="none" xmlns="http://www.w3.org/2000/svg">
<path fill-rule="evenodd" clip-rule="evenodd" d="M165.118 103.222C164.757 103.641 164.804 104.272 165.222 104.633L167.062 106.218C167.428 106.534 167.649 106.726 167.79 106.875C167.649 107.024 167.428 107.216 167.062 107.532L165.222 109.118C164.804 109.478 164.757 110.11 165.118 110.528C165.478 110.946 166.11 110.993 166.528 110.633L168.368 109.047C168.382 109.034 168.397 109.022 168.411 109.009C168.76 108.709 169.095 108.42 169.334 108.15C169.596 107.854 169.875 107.437 169.875 106.875C169.875 106.313 169.596 105.896 169.334 105.6C169.095 105.33 168.76 105.042 168.411 104.741C168.397 104.728 168.382 104.716 168.368 104.703L166.528 103.118C166.11 102.757 165.478 102.804 165.118 103.222Z" fill="#5F43D0"/>
<path fill-rule="evenodd" clip-rule="evenodd" d="M162.632 103.222C162.993 103.641 162.946 104.272 162.528 104.633L160.688 106.218C160.322 106.534 160.101 106.726 159.96 106.875C160.101 107.024 160.322 107.216 160.688 107.532L162.528 109.118C162.946 109.478 162.993 110.11 162.632 110.528C162.272 110.946 161.641 110.993 161.222 110.633L159.382 109.047C159.368 109.034 159.353 109.022 159.339 109.009C158.99 108.709 158.655 108.42 158.416 108.15C158.154 107.854 157.875 107.437 157.875 106.875C157.875 106.313 158.154 105.896 158.416 105.6C158.655 105.33 158.99 105.042 159.339 104.741C159.353 104.728 159.368 104.716 159.382 104.703L161.222 103.118C161.641 102.757 162.272 102.804 162.632 103.222Z" fill="#5F43D0"/>
<path opacity="0.4" d="M154.812 110.522C155.794 110.625 155.357 110.625 156.898 110.625C157.437 110.625 157.875 110.187 157.875 109.648C157.875 109.108 157.437 108.67 156.898 108.67C155.289 108.67 155.883 108.669 155.013 108.578C154.159 108.489 153.676 108.322 153.318 108.069C153.076 107.898 152.864 107.697 152.686 107.473C152.431 107.15 152.261 106.717 152.169 105.931C152.074 105.121 152.072 104.064 152.072 102.54L152.072 99.64C152.072 99.373 152.072 98.7344 152.353 98.2623C152.526 97.9713 152.747 97.7282 152.975 97.6044C153.341 97.4048 153.762 97.2915 154.208 97.2915L155.249 97.328C155.629 97.3359 156.072 97.3239 156.5 97.2091C157.334 96.9857 157.986 96.3343 158.209 95.5003C158.324 95.0721 158.336 94.6286 158.328 94.2485L158.292 93.2081C158.292 92.7405 158.416 92.3333 158.633 91.9549C158.76 91.7343 158.981 91.5324 159.286 91.3551C159.748 91.0862 160.301 91.0837 160.639 91.0822C160.977 91.0807 161.334 91.0795 161.632 91.0795C163.466 91.0795 164.133 91.0935 164.637 91.2708C165.509 91.5783 166.175 92.2199 166.485 93.0053C166.563 93.2019 166.618 93.4603 166.647 93.9083C166.677 94.365 166.678 94.9479 166.678 95.7882V100.901C166.678 101.439 167.114 101.875 167.651 101.875C168.189 101.875 168.625 101.439 168.625 100.901V95.755C168.625 94.9558 168.625 94.3083 168.59 93.7797C168.554 93.2351 168.479 92.7494 168.296 92.2852C167.767 90.9459 166.658 89.9116 165.282 89.4266C164.423 89.1241 162.951 89.1244 161.396 89.125C158.556 89.1246 156.87 89.1244 155.487 89.6115C153.267 90.3937 151.493 92.0564 150.65 94.1925C150.369 94.9044 150.244 95.6691 150.184 96.586C150.125 97.4867 150.125 98.5993 150.125 100.018V102.601C150.125 104.049 150.125 105.222 150.235 106.159C150.349 107.133 150.592 107.97 151.162 108.689C151.457 109.062 151.806 109.391 152.196 109.667C152.941 110.193 153.802 110.417 154.812 110.522Z" fill="#5F43D0"/>
<path d="M107.51 138V129.2H109.462V130.976H110.006L109.414 131.456C109.414 130.709 109.632 130.123 110.07 129.696C110.518 129.259 111.126 129.04 111.894 129.04C112.79 129.04 113.488 129.328 113.99 129.904C114.491 130.48 114.742 131.285 114.742 132.32V133.152H112.742V132.416C112.742 131.872 112.603 131.461 112.326 131.184C112.048 130.907 111.654 130.768 111.142 130.768C110.619 130.768 110.214 130.928 109.926 131.248C109.648 131.568 109.51 132.021 109.51 132.608V138H107.51ZM115.487 138L118.559 133.456L115.695 129.2H117.951L119.311 131.36C119.397 131.488 119.471 131.632 119.535 131.792C119.61 131.952 119.669 132.08 119.711 132.176C119.754 132.08 119.813 131.952 119.887 131.792C119.962 131.632 120.037 131.488 120.111 131.36L121.471 129.2H123.743L120.879 133.456L123.935 138H121.663L120.143 135.584C120.058 135.445 119.978 135.296 119.903 135.136C119.829 134.976 119.765 134.848 119.711 134.752C119.669 134.848 119.61 134.976 119.535 135.136C119.461 135.296 119.381 135.445 119.295 135.584L117.759 138H115.487ZM128.665 138.16C128.217 138.16 127.854 138.027 127.577 137.76C127.31 137.483 127.177 137.125 127.177 136.688C127.177 136.24 127.31 135.883 127.577 135.616C127.854 135.339 128.217 135.2 128.665 135.2C129.113 135.2 129.47 135.339 129.737 135.616C130.014 135.883 130.153 136.24 130.153 136.688C130.153 137.125 130.014 137.483 129.737 137.76C129.47 138.027 129.113 138.16 128.665 138.16ZM137.763 138.16C137.005 138.16 136.344 138.021 135.779 137.744C135.224 137.456 134.792 137.056 134.483 136.544C134.173 136.021 134.019 135.408 134.019 134.704V132.496C134.019 131.781 134.173 131.168 134.483 130.656C134.792 130.144 135.224 129.749 135.779 129.472C136.344 129.184 137.005 129.04 137.763 129.04C138.861 129.04 139.741 129.328 140.403 129.904C141.064 130.469 141.416 131.243 141.459 132.224H139.491C139.459 131.765 139.288 131.413 138.979 131.168C138.669 130.912 138.264 130.784 137.763 130.784C137.219 130.784 136.792 130.933 136.483 131.232C136.173 131.52 136.019 131.936 136.019 132.48V134.704C136.019 135.248 136.173 135.669 136.483 135.968C136.792 136.267 137.219 136.416 137.763 136.416C138.264 136.416 138.669 136.293 138.979 136.048C139.288 135.792 139.459 135.435 139.491 134.976H141.459C141.416 135.957 141.064 136.736 140.403 137.312C139.741 137.877 138.861 138.16 137.763 138.16ZM147.996 138C147.42 138 146.914 137.883 146.476 137.648C146.05 137.413 145.714 137.083 145.468 136.656C145.223 136.219 145.1 135.717 145.1 135.152V128.128H142.204V126.32H147.1V135.104C147.1 135.435 147.191 135.701 147.372 135.904C147.564 136.096 147.82 136.192 148.14 136.192H150.716V138H147.996ZM151.942 138V136.192H154.95V131.008H152.262V129.2H156.95V136.192H159.654V138H151.942ZM155.814 127.728C155.409 127.728 155.089 127.627 154.854 127.424C154.62 127.211 154.502 126.928 154.502 126.576C154.502 126.224 154.62 125.947 154.854 125.744C155.089 125.531 155.409 125.424 155.814 125.424C156.22 125.424 156.54 125.531 156.774 125.744C157.009 125.947 157.126 126.224 157.126 126.576C157.126 126.928 157.009 127.211 156.774 127.424C156.54 127.627 156.22 127.728 155.814 127.728ZM160.912 140.88V129.2H162.864V130.976H163.312L162.736 131.808C162.736 130.955 162.965 130.283 163.424 129.792C163.883 129.291 164.501 129.04 165.28 129.04C165.845 129.04 166.341 129.184 166.768 129.472C167.205 129.749 167.541 130.139 167.776 130.64C168.021 131.141 168.144 131.728 168.144 132.4V134.784C168.144 135.456 168.021 136.048 167.776 136.56C167.541 137.061 167.211 137.456 166.784 137.744C166.357 138.021 165.856 138.16 165.28 138.16C164.501 138.16 163.883 137.909 163.424 137.408C162.965 136.907 162.736 136.235 162.736 135.392L163.312 136.24H162.848L162.912 138.416V140.88H160.912ZM164.528 136.432C165.04 136.432 165.435 136.293 165.712 136.016C166 135.728 166.144 135.301 166.144 134.736V132.464C166.144 131.888 166 131.461 165.712 131.184C165.435 130.907 165.04 130.768 164.528 130.768C164.016 130.768 163.616 130.923 163.328 131.232C163.051 131.541 162.912 131.979 162.912 132.544V134.656C162.912 135.221 163.051 135.659 163.328 135.968C163.616 136.277 164.016 136.432 164.528 136.432ZM174.234 138.16C173.455 138.16 172.836 137.915 172.378 137.424C171.919 136.923 171.69 136.245 171.69 135.392L172.266 136.224H171.818V138H169.866V126.32H171.866V128.784L171.802 130.976H172.266L171.674 131.808C171.674 130.955 171.903 130.283 172.362 129.792C172.831 129.291 173.455 129.04 174.234 129.04C175.098 129.04 175.791 129.344 176.314 129.952C176.836 130.56 177.098 131.381 177.098 132.416V134.8C177.098 135.824 176.836 136.64 176.314 137.248C175.791 137.856 175.098 138.16 174.234 138.16ZM173.482 136.432C173.994 136.432 174.388 136.293 174.666 136.016C174.954 135.728 175.098 135.301 175.098 134.736V132.464C175.098 131.888 174.954 131.461 174.666 131.184C174.388 130.907 173.994 130.768 173.482 130.768C172.97 130.768 172.57 130.923 172.282 131.232C172.004 131.541 171.866 131.979 171.866 132.544V134.656C171.866 135.221 172.004 135.659 172.282 135.968C172.57 136.277 172.97 136.432 173.482 136.432ZM182.387 138.144C181.641 138.144 180.99 138 180.435 137.712C179.881 137.424 179.454 137.019 179.155 136.496C178.857 135.963 178.707 135.339 178.707 134.624V132.576C178.707 131.851 178.857 131.227 179.155 130.704C179.454 130.181 179.881 129.776 180.435 129.488C180.99 129.2 181.641 129.056 182.387 129.056C183.145 129.056 183.795 129.2 184.339 129.488C184.894 129.776 185.321 130.181 185.619 130.704C185.918 131.227 186.067 131.851 186.067 132.576V134.624C186.067 135.339 185.918 135.963 185.619 136.496C185.321 137.019 184.894 137.424 184.339 137.712C183.795 138 183.145 138.144 182.387 138.144ZM182.387 136.4C182.921 136.4 183.331 136.256 183.619 135.968C183.918 135.669 184.067 135.243 184.067 134.688V132.512C184.067 131.947 183.918 131.52 183.619 131.232C183.331 130.944 182.921 130.8 182.387 130.8C181.865 130.8 181.454 130.944 181.155 131.232C180.857 131.52 180.707 131.947 180.707 132.512V134.688C180.707 135.243 180.857 135.669 181.155 135.968C181.454 136.256 181.865 136.4 182.387 136.4ZM190.365 138.16C189.469 138.16 188.76 137.909 188.237 137.408C187.725 136.896 187.469 136.229 187.469 135.408C187.469 134.832 187.603 134.336 187.869 133.92C188.136 133.504 188.515 133.184 189.005 132.96C189.507 132.725 190.093 132.608 190.765 132.608H192.909V131.984C192.909 131.557 192.776 131.232 192.509 131.008C192.253 130.773 191.869 130.656 191.357 130.656C190.888 130.656 190.509 130.747 190.221 130.928C189.944 131.109 189.795 131.365 189.773 131.696H187.853C187.896 130.896 188.227 130.256 188.845 129.776C189.475 129.285 190.317 129.04 191.373 129.04C192.493 129.04 193.363 129.301 193.981 129.824C194.6 130.347 194.909 131.083 194.909 132.032V138H192.957V136.32H192.637L192.989 136.032C192.989 136.469 192.883 136.848 192.669 137.168C192.456 137.477 192.152 137.723 191.757 137.904C191.363 138.075 190.899 138.16 190.365 138.16ZM191.005 136.528C191.592 136.528 192.056 136.384 192.397 136.096C192.739 135.808 192.909 135.424 192.909 134.944V133.904H190.861C190.424 133.904 190.077 134.027 189.821 134.272C189.565 134.507 189.437 134.821 189.437 135.216C189.437 135.611 189.571 135.931 189.837 136.176C190.115 136.411 190.504 136.528 191.005 136.528ZM197.047 138V129.2H198.999V130.976H199.543L198.951 131.456C198.951 130.709 199.17 130.123 199.607 129.696C200.055 129.259 200.663 129.04 201.431 129.04C202.327 129.04 203.026 129.328 203.527 129.904C204.028 130.48 204.279 131.285 204.279 132.32V133.152H202.279V132.416C202.279 131.872 202.14 131.461 201.863 131.184C201.586 130.907 201.191 130.768 200.679 130.768C200.156 130.768 199.751 130.928 199.463 131.248C199.186 131.568 199.047 132.021 199.047 132.608V138H197.047ZM208.449 138.16C207.595 138.16 206.902 137.856 206.369 137.248C205.846 136.64 205.585 135.824 205.585 134.8V132.416C205.585 131.381 205.846 130.56 206.369 129.952C206.902 129.344 207.595 129.04 208.449 129.04C209.238 129.04 209.862 129.291 210.321 129.792C210.779 130.283 211.009 130.955 211.009 131.808L210.417 130.976H210.881L210.817 128.784V126.32H212.817V138H210.865V136.224H210.417L210.993 135.392C210.993 136.245 210.763 136.923 210.305 137.424C209.857 137.915 209.238 138.16 208.449 138.16ZM209.201 136.432C209.713 136.432 210.107 136.277 210.385 135.968C210.673 135.659 210.817 135.221 210.817 134.656V132.544C210.817 131.979 210.673 131.541 210.385 131.232C210.107 130.923 209.713 130.768 209.201 130.768C208.689 130.768 208.289 130.907 208.001 131.184C207.723 131.461 207.585 131.888 207.585 132.464V134.736C207.585 135.301 207.723 135.728 208.001 136.016C208.289 136.293 208.689 136.432 209.201 136.432Z" fill="#5F43D0"/>
</svg>
